images/instagram.svg

<svg width="36" height="36" viewBox="0 0 36 36" fill="none" xmlns="http://www.w3.org/2000/svg">
<circle cx="18" cy="18" r="18" fill="#FF6652"/>
<path d="M18.0003 11.4546C16.2227 11.4546 15.9996 11.4624 15.3014 11.4941C14.6046 11.526 14.129 11.6364 13.7129 11.7982C13.2824 11.9654 12.9172 12.189 12.5534 12.553C12.1893 12.9168 11.9657 13.282 11.798 13.7124C11.6357 14.1287 11.5252 14.6045 11.4939 15.301C11.4626 15.9992 11.4545 16.2224 11.4545 18C11.4545 19.7777 11.4624 20.0001 11.494 20.6983C11.5261 21.3951 11.6364 21.8707 11.7981 22.2869C11.9654 22.7174 12.189 23.0826 12.553 23.4464C12.9167 23.8105 13.2818 24.0347 13.712 24.2019C14.1285 24.3637 14.6042 24.474 15.3009 24.5059C15.9991 24.5377 16.222 24.5455 17.9995 24.5455C19.7772 24.5455 19.9996 24.5377 20.6977 24.5059C21.3945 24.474 21.8707 24.3637 22.2871 24.2019C22.7175 24.0347 23.0821 23.8105 23.4458 23.4464C23.8099 23.0826 24.0335 22.7174 24.2012 22.287C24.3621 21.8707 24.4726 21.3949 24.5053 20.6984C24.5367 20.0002 24.5448 19.7777 24.5448 18C24.5448 16.2224 24.5367 15.9993 24.5053 15.3011C24.4726 14.6043 24.3621 14.1287 24.2012 13.7125C24.0335 13.282 23.8099 12.9168 23.4458 12.553C23.0817 12.1889 22.7176 11.9653 22.2867 11.7982C21.8695 11.6364 21.3936 11.526 20.6968 11.4941C19.9986 11.4624 19.7764 11.4546 17.9982 11.4546H18.0003ZM17.4131 12.6341C17.5874 12.6339 17.7818 12.6341 18.0003 12.6341C19.7479 12.6341 19.955 12.6404 20.6451 12.6718C21.2833 12.701 21.6296 12.8076 21.8603 12.8972C22.1658 13.0158 22.3835 13.1576 22.6125 13.3867C22.8416 13.6158 22.9834 13.834 23.1023 14.1395C23.1919 14.3699 23.2987 14.7163 23.3277 15.3545C23.3591 16.0445 23.3659 16.2517 23.3659 17.9985C23.3659 19.7454 23.3591 19.9526 23.3277 20.6426C23.2985 21.2808 23.1919 21.6272 23.1023 21.8576C22.9837 22.1631 22.8416 22.3806 22.6125 22.6095C22.3834 22.8386 22.1659 22.9804 21.8603 23.0991C21.6299 23.1891 21.2833 23.2954 20.6451 23.3246C19.9551 23.356 19.7479 23.3628 18.0003 23.3628C16.2525 23.3628 16.0454 23.356 15.3554 23.3246C14.7173 23.2952 14.3709 23.1885 14.1401 23.0989C13.8346 22.9803 13.6164 22.8385 13.3874 22.6094C13.1583 22.3803 13.0165 22.1627 12.8976 21.8571C12.808 21.6266 12.7012 21.2803 12.6722 20.6421C12.6408 19.9521 12.6345 19.7448 12.6345 17.9969C12.6345 16.249 12.6408 16.0428 12.6722 15.3528C12.7013 14.7146 12.808 14.3683 12.8976 14.1375C13.0162 13.8321 13.1583 13.6139 13.3874 13.3848C13.6164 13.1557 13.8346 13.0139 14.1401 12.895C14.3708 12.805 14.7173 12.6986 15.3554 12.6693C15.9592 12.642 16.1932 12.6339 17.4131 12.6325V12.6341ZM21.4941 13.721C21.0604 13.721 20.7086 14.0724 20.7086 14.5061C20.7086 14.9398 21.0604 15.2916 21.4941 15.2916C21.9277 15.2916 22.2795 14.9398 22.2795 14.5061C22.2795 14.0725 21.9277 13.7207 21.4941 13.7207V13.721ZM18.0003 14.6387C16.144 14.6387 14.639 16.1437 14.639 18C14.639 19.8564 16.144 21.3607 18.0003 21.3607C19.8565 21.3607 21.361 19.8564 21.361 18C21.361 16.1437 19.8564 14.6387 18.0001 14.6387H18.0003ZM18.0003 15.8182C19.2051 15.8182 20.182 16.795 20.182 18C20.182 19.2049 19.2051 20.1819 18.0003 20.1819C16.7953 20.1819 15.8185 19.2049 15.8185 18C15.8185 16.795 16.7953 15.8182 18.0003 15.8182Z" fill="white"/>
</svg>

<svg xmlns="http://www.w3.org/2000/svg" width="36" height="36" fill="none"><circle cx="18" cy="18" r="18" fill="#FF6652"/><path fill="#fff" d="M18 11.455c-1.777 0-2 .007-2.699.04-.696.031-1.172.141-1.588.303-.43.167-.796.391-1.16.755a3.212 3.212 0 0 0-.755 1.16c-.162.416-.273.892-.304 1.588-.031.698-.04.921-.04 2.699 0 1.778.008 2 .04 2.698.032.697.142 1.173.304 1.589.167.43.391.796.755 1.16.364.364.729.588 1.159.755.417.162.892.272 1.589.304.698.032.921.04 2.699.04 1.777 0 2-.008 2.698-.04.697-.032 1.173-.142 1.59-.304.43-.167.794-.392 1.158-.756.364-.363.587-.729.755-1.159.161-.416.272-.892.304-1.589.032-.698.04-.92.04-2.698s-.008-2-.04-2.699c-.032-.697-.143-1.172-.304-1.588a3.212 3.212 0 0 0-.755-1.16 3.2 3.2 0 0 0-1.16-.755c-.417-.162-.892-.272-1.59-.304-.697-.032-.92-.04-2.698-.04H18Zm-.587 1.18H18c1.748 0 1.955.005 2.645.037.638.029.985.136 1.215.225.306.119.524.26.753.49.229.229.37.447.49.752.089.23.196.577.225 1.216.031.69.038.897.038 2.643 0 1.747-.007 1.955-.038 2.645-.03.638-.136.984-.226 1.215-.118.305-.26.523-.49.752-.229.229-.446.37-.752.49-.23.09-.577.195-1.215.225-.69.031-.897.038-2.645.038-1.747 0-1.955-.007-2.645-.038-.638-.03-.984-.136-1.215-.226a2.025 2.025 0 0 1-.753-.49c-.229-.229-.37-.446-.49-.752-.089-.23-.196-.577-.225-1.215-.031-.69-.038-.897-.038-2.645s.007-1.954.038-2.644c.03-.638.136-.985.226-1.216.118-.305.26-.523.49-.752.228-.23.447-.371.752-.49.23-.09.577-.196 1.215-.226.604-.027.838-.035 2.058-.037v.002Zm4.081 1.086a.785.785 0 1 0 0 1.571.785.785 0 0 0 0-1.571ZM18 14.639a3.361 3.361 0 1 0 0 6.723 3.361 3.361 0 0 0 0-6.723Zm0 1.18a2.182 2.182 0 1 1 0 4.363 2.182 2.182 0 0 1 0-4.364Z"/></svg>
